public/logo.svg

<?xml version="1.0" encoding="UTF-8" standalone="no"?>
<svg
   width="800"
   height="150"
   viewBox="0 0 800 150"
   role="img"
   aria-label="DomluvSchůzku"
   version="1.1"
   id="svg4"
   xmlns="http://www.w3.org/2000/svg"
   xmlns:svg="http://www.w3.org/2000/svg">
  <defs
     id="defs4" />
  <!-- Ikona kalendáře s fajfkou (černá) -->
  <!-- Text logo: DomluvSchůzku -->
  <!-- Doporučený font: Maven Pro; fallback sans-serif -->
  <g
     font-family="'Maven Pro', system-ui, '-apple-system', 'Segoe UI', Roboto, Arial, sans-serif"
     font-size="88px"
     dominant-baseline="middle"
     id="g4"
     transform="translate(-6.0533652,-0.9557945)">
    <text
       x="145"
       y="75"
       fill="#0f0f0f"
       font-weight="600"
       id="text3">Domluv</text>
    <text
       x="458.94928"
       y="77.973579"
       fill="#1fbfb5"
       font-weight="600"
       id="text4">Schůzku</text>
  </g>
  <g
     style="fill:none"
     id="g11"
     transform="matrix(4.4540189,0,0,4.4540189,16.981957,17.630701)">
    <path
       fill-rule="evenodd"
       clip-rule="evenodd"
       d="M 7,1 C 6.44772,1 6,1.44772 6,2 V 3 H 5 C 3.34315,3 2,4.34315 2,6 v 14 c 0,1.6569 1.34315,3 3,3 h 8.101 C 12.5151,22.4259 12.0297,21.7496 11.6736,21 H 5 C 4.44772,21 4,20.5523 4,20 v -9 h 16 v 0.2899 c 0.7224,0.215 1.396,0.5435 2,0.9648 V 6 C 22,4.34315 20.6569,3 19,3 H 18 V 2 C 18,1.44772 17.5523,1 17,1 16.4477,1 16,1.44772 16,2 V 3 H 8 V 2 C 8,1.44772 7.55228,1 7,1 Z m 9,5 V 5 H 8 V 6 C 8,6.55228 7.55228,7 7,7 6.44772,7 6,6.55228 6,6 V 5 H 5 C 4.44772,5 4,5.44772 4,6 V 9 H 20 V 6 C 20,5.44772 19.5523,5 19,5 H 18 V 6 C 18,6.55228 17.5523,7 17,7 16.4477,7 16,6.55228 16,6 Z"
       fill="#0f0f0f"
       id="path1-0" />
    <path
       d="m 15.2929,17.7071 c 0.3905,-0.3905 1.0237,-0.3905 1.4142,0 l 0.6412,0.6411 1.899,-1.8991 c 0.3906,-0.3905 1.0237,-0.3905 1.4143,0 0.3905,0.3906 0.3905,1.0237 0,1.4143 l -2.5403,2.5402 c -0.0864,0.0864 -0.1846,0.1537 -0.2895,0.2018 -0.383,0.224 -0.883,0.1718 -1.2115,-0.1567 l -1.3274,-1.3274 c -0.3905,-0.3905 -0.3905,-1.0237 0,-1.4142 z"
       fill="#0f0f0f"
       id="path2" />
    <path
       fill-rule="evenodd"
       clip-rule="evenodd"
       d="m 24,18 c 0,3.3137 -2.6863,6 -6,6 -3.3137,0 -6,-2.6863 -6,-6 0,-3.3137 2.6863,-6 6,-6 3.3137,0 6,2.6863 6,6 z m -10.0181,0 c 0,2.2191 1.799,4.0181 4.0181,4.0181 2.2191,0 4.0181,-1.799 4.0181,-4.0181 0,-2.2191 -1.799,-4.0181 -4.0181,-4.0181 -2.2191,0 -4.0181,1.799 -4.0181,4.0181 z"
       fill="#0f0f0f"
       id="path3" />
  </g>
</svg>

<svg xmlns="http://www.w3.org/2000/svg" width="800" height="150" viewBox="0 0 800 150" role="img" aria-label="DomluvSchůzku">
  <!-- Ikona kalendáře s fajfkou (černá) -->
  <g transform="translate(10,10) scale(1.8)" fill="#0f0f0f">
    <!-- tělo kalendáře -->
    <path fill-rule="evenodd" d="M7,1 C6.4477,1 6,1.4477 6,2V3H5C3.343,3 2,4.343 2,6v14c0,1.657 1.343,3 3,3h14c1.657,0 3-1.343 3-3V6c0-1.657-1.343-3-3-3h-1V2c0-.552-.448-1-1-1-.552,0-1,.448-1,1v1H8V2C8,1.447 7.552,1 7,1Zm12,5V5H8v1c0,.552-.448,1-1,1s-1-.448-1-1V5H5C4.448,5 4,5.448 4,6v3h16V6c0-.552-.448-1-1-1h-1v1c0,.552-.448,1-1,1s-1-.448-1-1Z"/>
    <!-- kolečko s fajfkou -->
    <path d="M15.293,17.707c.391-.391 1.024-.391 1.414,0l.641,.641 1.899-1.899c.391-.391 1.024-.391 1.414,0 .391,.391 .391,1.024 0,1.414l-2.54,2.54c-.086,.086-.185,.154-.289,.202-.383,.224-.883,.172-1.212-.157l-1.327-1.327c-.391-.391-.391-1.024 0-1.414Z"/>
    <path fill-rule="evenodd" d="M24,18c0,3.314-2.686,6-6,6s-6-2.686-6-6 2.686-6 6-6 6,2.686 6,6Zm-10.018,0c0,2.219 1.799,4.018 4.018,4.018 2.219,0 4.018-1.799 4.018-4.018 0-2.219-1.799-4.018-4.018-4.018-2.219,0-4.018,1.799-4.018,4.018Z"/>
  </g>

  <!-- Text logo: DomluvSchůzku -->
  <!-- Doporučený font: Maven Pro; fallback sans-serif -->
  <g font-family="Maven Pro, system-ui, -apple-system, Segoe UI, Roboto, Arial, sans-serif" font-size="88" dominant-baseline="middle">
    <text x="145" y="75" fill="#0f0f0f" font-weight="600">Domluv</text>
    <text x="405" y="75" fill="#1fbfb5" font-weight="600">Schůzku</text>
  </g>
</svg>
